rospo-light/small/status/battery-low-charging-symbolic.svg

<?xml version="1.0" encoding="UTF-8" standalone="no"?>
<svg
   xmlns:dc="http://purl.org/dc/elements/1.1/"
   xmlns:cc="http://creativecommons.org/ns#"
   xmlns:rdf="http://www.w3.org/1999/02/22-rdf-syntax-ns#"
   xmlns:svg="http://www.w3.org/2000/svg"
   xmlns="http://www.w3.org/2000/svg"
   xmlns:sodipodi="http://sodipodi.sourceforge.net/DTD/sodipodi-0.dtd"
   xmlns:inkscape="http://www.inkscape.org/namespaces/inkscape"
   width="22"
   height="22"
   version="1.1"
   id="svg6"
   sodipodi:docname="battery-low-charging-symbolic.svg"
   inkscape:version="0.92.1 r">
  <metadata
     id="metadata12">
    <rdf:RDF>
      <cc:Work
         rdf:about="">
        <dc:format>image/svg+xml</dc:format>
        <dc:type
           rdf:resource="http://purl.org/dc/dcmitype/StillImage" />
      </cc:Work>
    </rdf:RDF>
  </metadata>
  <defs
     id="defs10" />
  <sodipodi:namedview
     pagecolor="#ffffff"
     bordercolor="#666666"
     borderopacity="1"
     objecttolerance="10"
     gridtolerance="10"
     guidetolerance="10"
     inkscape:pageopacity="0"
     inkscape:pageshadow="2"
     inkscape:window-width="769"
     inkscape:window-height="480"
     id="namedview8"
     showgrid="false"
     inkscape:zoom="10.727273"
     inkscape:cx="4.5677966"
     inkscape:cy="13.330508"
     inkscape:window-x="0"
     inkscape:window-y="0"
     inkscape:window-maximized="0"
     inkscape:current-layer="svg6" />
  <g
     id="g824"
     transform="translate(3,3)">
    <path
       id="path2"
       d="M 6,1 V 2 H 3 v 12 c 0,0.55 0.446,1 1,1 h 8 c 0.554,0 1,-0.45 1,-1 V 2 H 10 V 1 Z m 2,4 v 3 h 3 L 8,13 V 10 H 5 Z"
       style="opacity:0.3;fill:#5c616c"
       inkscape:connector-curvature="0" />
    <path
       id="path4"
       d="m 3,10 v 4 c 0,0.55 0.446,1 1,1 h 8 c 0.554,0 1,-0.45 1,-1 V 10 H 9.801 L 8,13 V 10 H 5 Z"
       style="fill:#5c616c"
       inkscape:connector-curvature="0" />
  </g>
</svg>

<svg xmlns="http://www.w3.org/2000/svg" width="16" height="16" version="1.1">
 <path style="opacity:0.3;fill:#5c616c" d="M 6,1 V 2 H 3 V 14 C 3,14.55 3.446,15 4,15 H 12 C 12.554,15 13,14.55 13,14 V 2 H 10 V 1 Z M 8,5 V 8 H 11 L 8,13 V 10 H 5 Z"/>
 <path style="fill:#5c616c" d="M 3,10 V 14 C 3,14.55 3.446,15 4,15 H 12 C 12.554,15 13,14.55 13,14 V 10 H 9.801 L 8,13 V 10 H 5 Z"/>
</svg>
